_src/static/img/icon/youtube.svg

<svg width="16" height="12" viewBox="0 0 16 12" fill="none" xmlns="http://www.w3.org/2000/svg">
<path d="M13.0242 0.863892H2.87083C1.43634 0.863892 0.273453 2.02678 0.273453 3.46127V8.89215C0.273453 10.3266 1.43634 11.4895 2.87083 11.4895H13.0242C14.4587 11.4895 15.6216 10.3266 15.6216 8.89215V3.46127C15.6216 2.02678 14.4587 0.863892 13.0242 0.863892Z" fill="#1B3ACD" stroke="#1B3ACD" stroke-width="0.469069" stroke-linecap="round" stroke-linejoin="round"/>
<path d="M10.0727 5.7566C10.15 5.79623 10.215 5.85644 10.2603 5.9306C10.3056 6.00476 10.3296 6.08999 10.3296 6.17691C10.3296 6.26382 10.3056 6.34905 10.2603 6.42321C10.215 6.49737 10.15 6.55758 10.0727 6.59721L8.59691 7.35753L6.98182 8.18633C6.91002 8.22302 6.83002 8.24071 6.74945 8.23773C6.66888 8.23474 6.59041 8.21117 6.52152 8.16927C6.45264 8.12737 6.39563 8.06854 6.35592 7.99836C6.31621 7.92819 6.29514 7.84902 6.29469 7.76839V4.58542C6.29473 4.50459 6.31552 4.42513 6.35506 4.35463C6.3946 4.28414 6.45157 4.22497 6.52052 4.18279C6.58947 4.14062 6.66809 4.11684 6.74886 4.11375C6.82963 4.11065 6.90984 4.12834 6.98182 4.16512L8.59691 4.99628L10.0727 5.7566Z" fill="white"/>
</svg>

<svg width="16" height="12" fill="none" xmlns="http://www.w3.org/2000/svg"><path d="M13.024.864H2.871A2.597 2.597 0 00.273 3.46v5.431a2.597 2.597 0 002.598 2.598h10.153a2.597 2.597 0 002.598-2.598v-5.43A2.597 2.597 0 0013.024.863z" fill="#1B3ACD" stroke="#1B3ACD" stroke-width=".469" stroke-linecap="round" stroke-linejoin="round"/><path d="M10.073 5.757a.472.472 0 010 .84l-1.476.76-1.615.83a.472.472 0 01-.687-.419V4.585a.472.472 0 01.687-.42l1.615.831 1.476.76z" fill="#fff"/></svg>
